svg/logo/moment_fill.svg

<?xml version="1.0" encoding="UTF-8"?>
<svg width="24px" height="24px" viewBox="0 0 24 24" version="1.1" xmlns="http://www.w3.org/2000/svg" xmlns:xlink="http://www.w3.org/1999/xlink">
    <title>moment_fill</title>
    <g id="页面-1" stroke="none" stroke-width="1" fill="none" fill-rule="evenodd">
        <g id="Logo" transform="translate(-288.000000, -144.000000)">
            <g id="moment_fill" transform="translate(288.000000, 144.000000)">
                 <path d="M24,0 L24,24 L0,24 L0,0 L24,0 Z M12.5934901,23.257841 L12.5819402,23.2595131 L12.5108777,23.2950439 L12.4918791,23.2987469 L12.4918791,23.2987469 L12.4767152,23.2950439 L12.4056548,23.2595131 C12.3958229,23.2563662 12.3870493,23.2590235 12.3821421,23.2649074 L12.3780323,23.275831 L12.360941,23.7031097 L12.3658947,23.7234994 L12.3769048,23.7357139 L12.4804777,23.8096931 L12.4953491,23.8136134 L12.4953491,23.8136134 L12.5071152,23.8096931 L12.6106902,23.7357139 L12.6232938,23.7196733 L12.6232938,23.7196733 L12.6266527,23.7031097 L12.609561,23.275831 C12.6075724,23.2657013 12.6010112,23.2592993 12.5934901,23.257841 L12.5934901,23.257841 Z M12.8583906,23.1452862 L12.8445485,23.1473072 L12.6598443,23.2396597 L12.6498822,23.2499052 L12.6498822,23.2499052 L12.6471943,23.2611114 L12.6650943,23.6906389 L12.6699349,23.7034178 L12.6699349,23.7034178 L12.678386,23.7104931 L12.8793402,23.8032389 C12.8914285,23.8068999 12.9022333,23.8029875 12.9078286,23.7952264 L12.9118235,23.7811639 L12.8776777,23.1665331 C12.8752882,23.1545897 12.8674102,23.1470016 12.8583906,23.1452862 L12.8583906,23.1452862 Z M12.1430473,23.1473072 C12.1332178,23.1423925 12.1221763,23.1452606 12.1156365,23.1525954 L12.1099173,23.1665331 L12.0757714,23.7811639 C12.0751323,23.7926639 12.0828099,23.8018602 12.0926481,23.8045676 L12.108256,23.8032389 L12.3092106,23.7104931 L12.3186497,23.7024347 L12.3186497,23.7024347 L12.3225043,23.6906389 L12.340401,23.2611114 L12.337245,23.2485176 L12.337245,23.2485176 L12.3277531,23.2396597 L12.1430473,23.1473072 Z" id="MingCute" fill-rule="nonzero"></path>
                <path d="M9.00003,16.0415 L17.0017,20.6612 C15.5304,21.5127 13.8221,22 12,22 C11.08545,22 10.1995803,21.8772703 9.35796662,21.6472861 L9.00003,21.5422 L9.00003,16.0415 Z M7.00003,11.4227 L7.00003,20.6622 C4.70534731,19.3347962 2.98707919,17.1217599 2.31260658,14.4905256 L2.23671,14.1728 L7.00003,11.4227 Z M22,12 C22,14.8035577 20.8463388,17.3376072 18.9877816,19.1533833 L18.7614,19.3678 L14,16.6188 L22,12 Z M12.0001,8.53589 L15,10.2679 L15,13.7321 L12,15.4641 L9.00003,13.7321 L9.00003,10.268 L12.0001,8.53589 Z M17,3.33782 C19.3865,4.71832 21.1495,7.05672 21.7633,9.82728 L17,12.5774 L17,3.33782 Z M5.23863,4.63216 L10.0001,7.38118 L2,12 L2.00550907,11.6648952 C2.09342433,8.99486397 3.22804919,6.58971569 5.01225037,4.8465758 L5.23863,4.63216 Z M12,2 C12.91455,2 13.8004656,2.12276797 14.6420707,2.35272822 L15,2.4578 L15,7.95849 L6.99838,3.33876 C8.46962,2.48733 10.1779,2 12,2 Z" id="形状" fill="#09244B"></path>
            </g>
        </g>
    </g>
</svg>

<svg xmlns="http://www.w3.org/2000/svg" width="24" height="24"><g fill="none" fill-rule="evenodd"><path d="M24 0v24H0V0h24ZM12.593 23.258l-.011.002-.071.035-.02.004-.014-.004-.071-.035c-.01-.004-.019-.001-.024.005l-.004.01-.017.428.005.02.01.013.104.074.015.004.012-.004.104-.074.012-.016.004-.017-.017-.427c-.002-.01-.009-.017-.017-.018Zm.265-.113-.013.002-.185.093-.01.01-.003.011.018.43.005.012.008.007.201.093c.012.004.023 0 .029-.008l.004-.014-.034-.614c-.003-.012-.01-.02-.02-.022Zm-.715.002a.023.023 0 0 0-.027.006l-.006.014-.034.614c0 .012.007.02.017.024l.015-.002.201-.093.01-.008.004-.011.017-.43-.003-.012-.01-.01-.184-.092Z"/><path fill="#09244B" d="m9 16.042 8.002 4.62A9.954 9.954 0 0 1 12 22c-.915 0-1.8-.123-2.642-.353L9 21.542v-5.5Zm-2-4.62v9.24a10.02 10.02 0 0 1-4.687-6.171l-.076-.318L7 11.423ZM22 12a9.97 9.97 0 0 1-3.012 7.153l-.227.215L14 16.618 22 12ZM12 8.536l3 1.732v3.464l-3 1.732-3-1.732v-3.464l3-1.732Zm5-5.198a10.015 10.015 0 0 1 4.763 6.49L17 12.577v-9.24ZM5.239 4.632 10 7.382 2 12l.006-.335a9.969 9.969 0 0 1 3.006-6.818l.227-.215ZM12 2c.915 0 1.8.123 2.642.353l.358.105v5.5l-8.002-4.62A9.954 9.954 0 0 1 12 2Z"/></g></svg>
